X: 2
T: Spootiskerry
R: reel
M: 4/4
L: 1/8
K: Gmaj
G2DE GDEG|DEGA B2AB|G2DE GABd|eged B2AB|
G2DE GDEG|DEGA B2AB|g2ed edBA|1B2G2 G2DE:|2B2G2 G2ef||
|:g2ed edBA|BdBG E2DE|GABd eged|B2A2 A2ef|
g2ed edBA|BdBG E2DE|GABd eged|B2G2 G2ef|
g2ed edBA|BdBG E2DE|GABd eged|B2A2 A2DE|
G2DE GDEG|DEGA B2AB|g2ed edBA|B2G2 G4||


Tune 857	Setting 27063

